svgs/light/house-circle-check.svg

<svg xmlns="http://www.w3.org/2000/svg" viewBox="0 0 640 512"><!--! Font Awesome Pro 6.4.2 by @fontawesome - https://fontawesome.com License - https://fontawesome.com/license (Commercial License) Copyright 2023 Fonticons, Inc. --><path d="M277.4 4c6-5.3 15.1-5.3 21.2 0L512.5 192.8c-5.4-.5-10.9-.8-16.5-.8c-10.2 0-20.2 .9-29.9 2.5L288 37.3 96 206.7V432c0 26.5 21.5 48 48 48h64V320c0-17.7 14.3-32 32-32h96c1 0 2.1 .1 3.1 .1c-5.1 10.1-9.3 20.7-12.5 31.9H240V480h16 80 24.2c10 12.1 21.7 22.9 34.6 32H144c-44.2 0-80-35.8-80-80V235L26.6 268C20 273.8 9.8 273.2 4 266.6S-1.2 249.8 5.4 244L277.4 4zM496 480a112 112 0 1 0 0-224 112 112 0 1 0 0 224zm0-256a144 144 0 1 1 0 288 144 144 0 1 1 0-288zm67.3 100.7c6.2 6.2 6.2 16.4 0 22.6l-72 72c-6.2 6.2-16.4 6.2-22.6 0l-40-40c-6.2-6.2-6.2-16.4 0-22.6s16.4-6.2 22.6 0L480 385.4l60.7-60.7c6.2-6.2 16.4-6.2 22.6 0z"/></svg>

<svg xmlns="http://www.w3.org/2000/svg" viewBox="0 0 640 512"><!--! Font Awesome Pro 6.1.1 by @fontawesome - https://fontawesome.com License - https://fontawesome.com/license (Commercial License) Copyright 2022 Fonticons, Inc. --><path d="M277.4 4.002C283.5-1.334 292.5-1.334 298.6 4.002L512.5 192.8C507.1 192.3 501.6 192 496 192C485.8 192 475.8 192.9 466.1 194.5L288 37.34L95.1 206.7V432C95.1 458.5 117.5 480 143.1 480H207.1V320C207.1 302.3 222.3 288 239.1 288H336C337 288 338.1 288.1 339.1 288.1C333.1 298.2 329.8 308.9 326.6 320H239.1V480H360.2C370.3 492.1 381.9 502.9 394.8 512H144C99.82 512 64 476.2 64 432V234.1L26.59 267.1C19.96 273.8 9.849 273.2 4.003 266.6C-1.844 259.1-1.212 249.8 5.414 244L277.4 4.002zM563.3 324.7C569.6 330.9 569.6 341.1 563.3 347.3L491.3 419.3C485.1 425.6 474.9 425.6 468.7 419.3L428.7 379.3C422.4 373.1 422.4 362.9 428.7 356.7C434.9 350.4 445.1 350.4 451.3 356.7L480 385.4L540.7 324.7C546.9 318.4 557.1 318.4 563.3 324.7H563.3zM352 368C352 288.5 416.5 224 496 224C575.5 224 640 288.5 640 368C640 447.5 575.5 512 496 512C416.5 512 352 447.5 352 368zM496 480C557.9 480 608 429.9 608 368C608 306.1 557.9 256 496 256C434.1 256 384 306.1 384 368C384 429.9 434.1 480 496 480z"/></svg>
